X:1
T:Title
%%score { ( 1 3 ) | ( 2 4 ) }
L:1/8
M:6/8
K:Ab
V:1 treble nm="Grand Piano"
V:3 treble 
V:2 bass 
V:4 bass 
V:1
 z3 z2[Q:1/4=87] [CE] | [Ec][=D_c][E=c] [CA]2 [_DB] | [Ec][=D_c][E=c] [CA]2 A | %3
 [Gd][_Gc][=Gd] [GB]2 G | AA[GB] c2 E | c_c=c A2 A | [FB][F=A][FB] [DF]2 [Fd] | cBA E2 B | %8
[M:5/8] [CA]-[CA]- [CA]3 |[M:1/8] [EA] |[M:3/4] z [GB]- [GB]3 z |[M:5/8] z [Ac]- [Ac]3 |[M:1/8] c | %13
[M:3/4] ed cc BA | [Ac][GB]- [GB]3 E |[M:5/8] AAA [GB]2 |[M:1/8] [GB] |[M:3/4] ce cF- [FA]F | %18
[M:13/16] E[Ee]3/2[Fd]cBA |[M:5/8] B3 A2 |] %20
V:2
 z3 z2 [A,,A,] | [A,,A,][A,,A,][A,,A,] [A,,A,]2 [E,G,] | [A,,A,][A,,A,][A,,A,] [A,,A,]2 [A,C] | %3
 [E,B,][E,=A,][E,B,] [E,E]2 [E,DE] | [A,CE][A,CE][E,E][K:treble] [A,EA]2 [A,C] | %5
 [A,EA][A,=DA][A,EA][K:bass] [A,CE]2 [A,CE] | [D,D][D,D][D,D] [D,A,]2 [D,A,] | %7
 [E,A,E][E,G,D][E,A,C] [E,B,D]2 [E,G,D] |[M:5/8] [A,,A,]-[A,,A,]- [A,,A,]3 |[M:1/8] [A,C] | %10
[M:3/4] [E,B,][E,D] E,E, E,E, |[M:5/8] A,A,A, A,A, |[M:1/8][K:treble] [A,EA] | %13
[M:3/4] z2 z E z2[K:bass] | [E,E][E,E]- [E,E]3 [E,D] |[M:5/8] [A,CE][A,CE][A,CE] [E,E]2 | %16
[M:1/8] [E,E] |[M:3/4][K:treble] [A,EA][A,CA] [A,EA][K:bass] [D,D]2 [D,A,D] | %18
[M:13/16] z/ z/ z/ z/ z/ z [E,E]-<[E,E] z |[M:5/8] [E,DE]3 [A,CE]2 |] %20
V:3
 x6 | x6 | x6 | x6 | x6 | x6 | x6 | x6 |[M:5/8] x5 |[M:1/8] x |[M:3/4] .[EG]2 DD D[DGB] | %11
[M:5/8] [CA]EE EE |[M:1/8] x |[M:3/4] x6 | x6 |[M:5/8] x5 |[M:1/8] x |[M:3/4] z2 z B z2 | %18
[M:13/16] x13/2 |[M:5/8] x5 |] %20
V:4
 x6 | x6 | x6 | x6 | x3[K:treble] x3 | x3[K:bass] x3 | x6 | x6 |[M:5/8] x5 |[M:1/8] x |[M:3/4] x6 | %11
[M:5/8] x5 |[M:1/8][K:treble] x |[M:3/4] [CEA][B,EG] [A,EA][A,A]- [A,DA][K:bass][A,C] | x6 | %15
[M:5/8] x5 |[M:1/8] x |[M:3/4][K:treble] x3[K:bass] x3 |[M:13/16] [C,A,][C,A,]3/2[C,A,]A,D[E,CE] | %19
[M:5/8] x5 |] %20

